X:1
T:Dry Bones
M:4/4
L:1/8
K:G
 E2 GG G A2 A| _B A3 G4| EG G2G-A G _B-| _B4- B3 E| EG GG GA AG| _B2 A2 G2 A2|\
 _Bc A2 G2 E2| E6 z2| E3 G3 GA| _BA BA GE EE| EG G2 G2 A2| _B6- B z|\
 E3 G3 GA| _BA BA G/2 E3/2 A2| _Bc A2 G2 E2| E6 z2|
